X:1
T:Votre rigueur
T:Thomas Crecquillon
T:Source : La fleur des chansons à 3---Louvain---P.Phalèse---1574. Editor : André Vierendeels (22/09/18) Notes : Original clefs : G2, C2, C4 Original note values have been halved Editorial accidentals above the staff
T:Votre rigueur
T:©
T:©
T:©
T:©
T:©
T:©
C:Thomas Crecquillon
Z:©
%%score [ 1 2 3 ]
L:1/8
Q:1/4=120
M:2/2
K:C
V:1 treble nm="Soprano" snm="S"
V:2 treble nm="Alto" snm="A"
V:3 treble-8 nm="Tenor" snm="T"
V:1
 D4 A2 A2 | G2 G2 d3 d | c2 A2 B4 | A2 A2 c4- | c2 B2 A3 G/F/ | G2 A2 D4 | E4 z2 D2 | %7
w: Vo stre ri-|gueur veut donc- ques|que ie meu-|re, veut donc-|* ques que _ _|_ ie meu-|re, vo-|
 A2 A2 F2 A2- | A2 c4 B2 | A3 B cd e2- | ed d4 c2 | d2 A2 f4- | f2 f2 e4 | z4 A4 | d6 d2 | %15
w: stre ri- gueur veut|_ donc- ques|que _ _ _ ie-|* * meu- *|re, puis- que|_ pi- tié,|puis-|que pi-|
 c2 A2 B2 c2 | defe dcBA | B2 B2 c4- | c2 c2 B2 G2 | A2 GF E2 F2 | G2 A4 G2 | A4 z4 | z4 z2 A2 | %23
w: tié vo- stre cueur|ne _ _ _ re- * * *|mord, puis- que|_ pi- tié vo-|stre _ _ _ cueur|ne re- *|mord,|si|
 ccBG A c2 B | cd ec d e2 d | e2 A2 ccBG | AB c2 B2 A2- | A2 G2 A2 z A | B d2 c d2 f2- | %29
w: n'au- rez vous de ce ie vous|as- seu- * * * * *|re, si n'au- rez vous de|ce ie vous as- seu-|* * re, hon-|neur ne _ bruit, hon-|
 fefd e2 f2- | fedc d4 | c4 z2 A2 | c2 d2 e2 f2 | e6 d2 | c2 BA B4 | A4 z2 A2 | c3 d e2 f2- | %37
w: * * * * neur ne|_ _ _ _ _|bruit de|si cru- el- le|mort, _|_ _ _ _|* de|si- * * cru-|
 f2 e4 d2- | d2 c2 d2 z A | B d2 c d2 f2- | fefd e2 f2- | fedc d4 | c4 z2 A2 | c2 d2 e2 f2 | %44
w: * el- *|* le mort, hon-|neur ne _ bruit, hon-|* * * * * neur|_ _ _ _ ne|bruit, de|si cru- el- le|
 e6 d2 | c2 BA B4 | A4 z2 A2 | c3 d e2 f2- | f2 e4 d2- |"^#" d2 c2 d4- | d8 |] %51
w: mort, _|_ _ _ _|* de|si _ _ cru-|* el- *|* le mort.|_|
V:2
 z4 A,4 | E2 E2 D2 D2 | A3 A G2 E2 | F4 E2 E2 | G6 F2 | E2 F3 E D2- | D2 C2 D4 | z2 A,2 D2 D2 | %8
w: Vo-|stre ri- gueur veut|donc- ques que ie|meu- re, veut|donc- ques|que ie _ _|_ meu- re,|vo- stre ri-|
 C2 C2 G4- | G2 F2 E2 C2 | D4 E4 | D4 z2 D2 | A6 A2 | G2 E2 F2 DE | FG A4 G2 | A2 z A G2 E2 | %16
w: gueur veut donc-|* ques que ie|meu- *|re, puis-|que pi-|tié vo- stre cueur _|_ _ ne re-|mord, vo- stre cueur|
 FGAG FE A2- | A2 G2 A2 A,2 | E6 E2 | D2 B,2 C2 D2 | E2 C2 B,4 | A,2 z2 E2 GG | FDEG F E2 D | %23
w: ne _ _ _ _ _ _|_ re- mord, puis-|que pi-|tié vo- stre cueur|ne _ re-|mord, si n'au- rez|vous de ce ie vous as- seu-|
 EEGG FEFG | A2 GE G2 F2 | E G2 F2 EDE- | EDEF G2 F2- | FD E2 F2 F2 | G2 E2 F2 A2- | AGAF G2 A2 | %30
w: re, si n'au- rez vous de ce ie|vous as- * seu- *|||* * * re, hon-|neur ne bruit, hon-|* * * * neur ne|
 D3 E F2 G2 | A2 E2 F3 G | A2 B2 A2 FG | AB c4 B2- |"^#" B2 A4 G2 | A2 A,2 C3 D | E2 F2 G2 A2- | %37
w: bruit _ _ _|_ de si _|_ cru- el- le _|_ _ _ _||mort, de si _|_ cru- el- *|
 A2 G2 F2 ED | E4 D2 F2 | G2 E2 F2 A2- | AGAF G2 A2 | D3 E F2 G2 | A2 E2 F3 G |"^b" A2 B2 A2 FG | %44
w: |le mort, hon-|neur ne bruit, hon-|* * * * * neur|ne- * * *|bruit, de si _|_ cru- el- * *|
"^-natural" AB c4 B2- | B2 A4 G2 | A2 A,2 C3 D | E2 F2 G2 A2- | A2 G2 F2 ED | E4 D4- | D8 |] %51
w: |* * le|mort, de si _|_ cru- el- *||le mort.|_|
V:3
 z8 | z8 | z8 | D4 A2 A2 | G2 G2 d3 d | c2 A2 B4 | A4 D4- | D4 z2 D2 | A2 A2 G2 G2 | d3 d c2 A2 | %10
w: |||Vo stre ri-|gueur veut donc- ques|que ie meu-|* re,|_ vo-|stre ri- gueur veut|donc- que que ie|
 B4 A4 | z2 D2 d4- | d2 d2 c2 A2 | B2 c2 defe | dcBA B4 | A4 z4 | z8 | E4 A4- | A2 A2 G2 E2 | %19
w: meu- re,|puis- que|_ pi- tié vo-|stre cueur ne- * * *|* * * * re-|mord,||puis- que|_ pi- tié vo-|
 F2 G2 A2 F2 | E8 | z2 A2 ccBG | ABcB AG F2 | E4 z4 | A2 cc BGAB | cc d2 AcAc- | cB A2 G2 A2 | %27
w: stre cueur ne re-|mord,|si n'au- rez vous de|ce ie vous as- seu- * *|re,|si n'au- rez vous de ce ie|vous as- seu- * * re, de|_ ce ie vous as-|
 B2 c2 F4 | z2 A2 d4- | d2 d2 c2 F2 | _B6 B2 | A4 z4 | z8 | A4 c2 d2 | e2 f2 e4 | A8 | z4 z2 D2 | %37
w: seu- * re,|hon- neur|_ ne bruit, hon-|neur ne|bruit||de si cru-|el- * le|mort|de|
 F2 G2 A2 B2 | A4 D4 | z2 A2 d4- | d2 d2 c2 F2 | _B6 B2 | A4 z4 | z8 | A4 c2 d2 | e2 f2 e4 | A8 | %47
w: si cru- el- *|le mort,|hon- neur|_ ne bruit, hon-|neur ne|bruit,||de si cru-|el- * le|mort,|
 z4 z2 D2 |"^b" F2 G2 A2 B2 | A4 D4- | D8 |] %51
w: de|si cru- e- *|le mort.|_|

